X:1
L:1/8
Q:1/4=160
M:4/4
K:Amin
""Am"" A2 A2 c2 BA |""G"" B2 B2 d2 cB |""Am"" A2 A2 c2 BA |""Em"" e2 e2 e4 ::""C"" g2 e2 c3 e | 
""G"" d2 B2 G3 B |""Am"" c2 A2""G"" G3 B |""Am"" A2 A2 A4 ::""Am"" A2 AB cBcA |""G"" B2 Bc dcdB | 
""Am"" AGAB cBcd |""Em"" e2 e2 e4 ::""C"" gfed c2 fe |""G"" dcBA G2 FE |""Am"" ABcA""G"" BcdB |""Am"" c2 A2 A4 :|
